X:153
T:Old Mother Oxford - Stretton on Fosse
M:4/4
L:1/8
K:G
GABc d2 c2 | B2 A2 G4 | GABc d2 g2 | f2 g2 a4 | 
g3 a b2 a2 | g2 e2 d2 ef | g2 d2 c2 B2 | A4 G4 || 
Bc d2 Bc d2 | Bc de d2 cB | c2 e2 c2 e2 | c2 e2 e3 f | 
g3 a b2 a2 | g2 e2 d2 ef | g2 d2 c2 B2 | A4 G4 || 

